X:1
T:Les Cloches de Notre Dame
T:The Bells of Notre Dame
%%score 1 2 3 4
L:1/8
M:4/4
K:G
V:1 treble nm="Violín I" snm="Vln. I"
V:2 treble nm="Violín II" snm="Vln. II"
V:3 bass nm="Violonchelo I" snm="Vc. I"
V:4 bass nm="Violonchelo II" snm="Vc. II"
V:1
 z2[Q:1/4=100]!f! G2 B2 A2 | z2 F2 A2 G2 | z2 G2 B2 A2 |!<(! d2 B2 e4!<)! | z2 G2 B2 A2 | %5
 z2 F2 A2 G2 |!<(! z2 G2 B2 A2 | d2 B2!<)! e4 |[M:6/8] z6 | z6 | z6 | z6 |!mp! (e>BA) (dcA) | %13
 (B>AB) (cBA) | (B2 G) (G2 F) | E3 z z B | (e>BA) (dcA) | (B>AB) (cBA) | (B2 D) (B2 A) | B3 z AB | %20
 (c>Bc) (dcA) | (B E2- E)(AB) | (c>Bc) (dcA) | B3 z z B | (e>BA) (dcA) | (B>AB) (cBA) | %26
 (B2 G) (G2 F) | E6 |!mf! !>!E3 !>!B3 | !>!F3 !>!D3 |!<(! !>!E3 !>!B3 | A3 d3!<)! | %32
!f! (e>BA) (dcA) | (B>AB) (cBA) | (B2 G) (G2 F) | E3 z z B | (e>BA) (dcA) | (B>AB) (cBA) | %38
 (B2 D) (B2 A) | B3 z AB | (c>Bc) (dcA) | (B E2- E)(AB) | (c>Bc) (dcA) | B4 z B | (e>BA) (dcA) | %45
 (B>AB) (cBA) |!<(! (B2 G) (G2 F) | E6!<)! |!mp! !>!E3 !>!B3 | !>!A3 !>!F3 |!>(! !>!E6- | E6!>)! | %52
!p! z .B,.B, z .B,.B, |!<(! z .B,.B, z .B,.B,!<)! |!mp! E3 F3 | G3 ^d3 | d3 B3 | E3 B,3 | E3 F3 | %59
 G3 ^D3 |!<(! B,3 B,3!<)! |!>(! D3 B3!>)! |!mp! c3 A3 | D2 E FED | A,3 F3 | z EF ^DEF | G3 F3 | %67
 D3 ^D3 | E3 E3 | E6 |] %70
V:2
 z8 | z8 | z8 | z4!<(! G,4!<)! | z2 B,2 E2 D2 | z2 A,2 D2 C2 |!<(! z2 B,2 E2 D2 | F2 E2!<)! E4 | %8
[M:6/8] z3 z!p! .G.G | z .G.G z .G.G | z .G.G z .G.G | z .G.G z .G.G | z .G.G z .G.G | %13
 z .G.G z .G.G | z .G.G z .G.G | z .G.G z .G.G | z .G.G z .G.G | z .G.G z .G.G | z .G.G z .G.G | %19
 z .G.G z .G.G | A,3 A,3 | D3 B,3 | E3 A3 | F3 F3 | G3 A3 | G3 A3 | G3!<(! E3 | E6!<)! | %28
!mf! !>!B3 !>!G3 | !>!D3 !>!A,3 | !>!B,6- |!>(! B,6!>)! |!mp! G,2 z A,2 z | B,2 z C2 z | %34
 G,2 z B,2 z | E2 z E2 z | G,2 z A,2 z | B,2 z C2 z | G,2 z B,2 z | B,2 z D2 z | E3 F3 | %41
 z GF EDB, | C3 F3 | E3 ^D3 | B,3 F3 | D3 ^D3 |!<(! G3 E3 | E6!<)! |!mp! !>!E3 !>!G3 | %49
 !>!F3 !>!D3 |!>(! !tenuto!E.G.G z .G.G | z .G.G z .G.G!>)! |!p! z .G.G z .G.G | %53
!<(! z .G.G z .G.G!<)! |!mp! E3 F3 | G3 G3 | D3 B,3 |!<(! E3 E3!<)! |!mp! B6- |!>(! B6!>)! | %60
 D3 D3 | B,3 B,3 | E3 F3 | E6 | A3 F3 | B6 | E3 F3 | G3 G3 | G3 E3 | E6 |] %70
V:3
!f! E,,8 | E,,8 | E,,8 | E,,8 | E,,8 | E,,8 |!<(! E,,8 | E,,4!<)! E,4 |[M:6/8] z3!p! B,,3 | %9
 ^C,3 ^D,3 | E,3 B,,3 | ^C,3 ^D,3 | E,,3 F,,3 | G,,3 ^D,3 | D,3 B,,3 | E,,3 B,,3 | E,,3 F,,3 | %17
 G,,3 ^D,,3 | D,,3 D,3 | G,,3 F,,3 | E,,3 F,,3 | G,,3 E,,3 | A,,3 F,,3 | B,,3 B,,3 | E,,3 F,,3 | %25
 G,,3 ^D,3 | E,,3 z z2 | z4 z2 |!mf! !>!E,,3 !>!C,3 | !>!D,3 !>!B,,3 | !>!E,,6- |!>(! E,,6!>)! | %32
!mp! E,2 z F,2 z | G,2 z ^D,2 z | D,2 z B,,2 z | E,2 z E,,2 z | E,2 z F,2 z | G,2 z ^D,2 z | %38
 D,2 z G,2 z | G,2 z F,2 z | E,3 F,3 | G,3 E,3 | A,3 F,3 | B,3 B,,3 | E,3 F,3 | G,3 ^D,3 | %46
!<(! E,3 z z2 | z4 z2!<)! |!mp! !>!E,,3 !>!C,3 | !>!D,3 !>!B,,3 |!>(! z3 !tenuto!B,,3 | %51
 !tenuto!^C,3 !tenuto!^D,3!>)! |!p! E,3 B,,3 |!<(! ^C,3 ^D,3!<)! |!mf! (E>B,A,) (DCA,) | %55
 (B,>A,B,) (CB,A,) | (B,2 G,) (G,2 F,) | E,3 z z B, | (E>B,A,) (DCA,) | (B,>A,B,) (CB,A,) | %60
 (B,2 D,) (B,2 A,) | B,3 z A,B, | (C>B,C) (DCA,) | (B, E,2- E,)(A,B,) | (C>B,C) (DCA,) | %65
 B,3 z z B, | (E>B,A,) (DCA,) | (B,>A,B,) (CB,A,) | (B,2 G,) (G,2 F,) | E,6 |] %70
V:4
!f! E,,8 | E,,8 | E,,8 | E,,8 | E,,8 | E,,8 |!<(! E,,8 | E,,4!<)! E,4 |[M:6/8] z3 z!p! .G,,.G,, | %9
 z .G,,.G,, z .G,,.G,, | z .G,,.G,, z .G,,.G,, | z .G,,.G,, z .G,,.G,, | z .G,,.G,, z .G,,.G,, | %13
 z .G,,.G,, z .G,,.G,, | z .G,,.G,, z .G,,.G,, | z .G,,.G,, z .G,,.G,, | z .G,,.G,, z .G,,.G,, | %17
 z .G,,.G,, z .G,,.G,, | z .G,,.G,, z .G,,.G,, | z .G,,.G,, z .G,,.G,, | A,,3 A,,3 | D,3 B,,3 | %22
 E,3 A,3 | F,3 F,3 | G,3 A,3 | G,3 A,3 | G,3 E,3 | z6 |!mf! !>!E,,3 !>!C,3 | !>!D,3 !>!B,,3 | %30
 !>!E,,6- |!>(! E,,6!>)! |!mp! G,,2 z A,,2 z | B,,2 z C,2 z | G,,2 z B,,2 z | E,2 z E,2 z | %36
 G,,2 z A,,2 z | B,,2 z C,2 z | G,,2 z B,,2 z | B,,2 z D,2 z | E,3 F,3 | G,3 E,3 | A,3 F,3 | %43
 B,3 B,,3 | E,3 F,3 | G,3 ^D,3 | E,3 z z2 | z6 |!mp! !>!E,,3 !>!C,3 | !>!D,3 !>!B,,3 | z6 | z6 | %52
 z6 | z6 |!mf! (E>B,A,) (DCA,) | (B,>A,B,) (CB,A,) | (B,2 G,) (G,2 F,) | E,3 z z B, | %58
 (E>B,A,) (DCA,) | (B,>A,B,) (CB,A,) | (B,2 D,) (B,2 A,) | B,3 z A,B, | (C>B,C) (DCA,) | %63
 (B, E,2- E,)(A,B,) | (C>B,C) (DCA,) | B,3 z z B, | (E>B,A,) (DCA,) | (B,>A,B,) (CB,A,) | %68
 (B,2 G,) (G,2 F,) | E,6 |] %70

